priv/static/svgs/icons_new/security-passport.svg

<svg width="32" height="32" viewBox="0 0 32 32" fill="none" xmlns="http://www.w3.org/2000/svg">
<path d="M6.26518 14.9109V26.3492C6.29509 26.6497 6.43631 26.9281 6.66108 27.1297C6.88585 27.3312 7.17792 27.4414 7.47984 27.4386H24.9097C25.0463 27.4355 25.1807 27.4043 25.3046 27.3468C25.4285 27.2893 25.5392 27.2068 25.6297 27.1045C25.7203 27.0022 25.7887 26.8823 25.8307 26.7524C25.8727 26.6224 25.8874 26.4851 25.8738 26.3492V14.9109M6.26518 14.9109L4.28798 5.22091C4.27785 5.13747 4.28573 5.05283 4.31107 4.97269C4.33641 4.89254 4.37863 4.81875 4.43489 4.7563C4.49115 4.69385 4.56013 4.64418 4.6372 4.61064C4.71427 4.57709 4.79764 4.56046 4.88168 4.56185H27.5079C27.5862 4.5641 27.663 4.5845 27.7321 4.62144C27.8012 4.65838 27.8608 4.71085 27.9062 4.77473C27.9516 4.83861 27.9816 4.91216 27.9937 4.98958C28.0059 5.067 27.9999 5.14619 27.9763 5.22091L25.8738 14.9109M6.26518 14.9109H25.8738M11.1674 21.9916C11.6007 21.9916 12.0164 21.8194 12.3228 21.513C12.6293 21.2065 12.8014 20.7909 12.8014 20.3575V19.8128C12.8014 19.3795 12.6293 18.9638 12.3228 18.6574C12.0164 18.351 11.6007 18.1788 11.1674 18.1788C10.734 18.1788 10.3184 18.351 10.0119 18.6574C9.70548 18.9638 9.53332 19.3795 9.53332 19.8128V20.3575C9.53332 20.7909 9.70548 21.2065 10.0119 21.513C10.3184 21.8194 10.734 21.9916 11.1674 21.9916ZM11.1674 21.9916C12.0933 21.9916 13.8908 22.4491 13.8908 23.6256V24.715M11.1674 21.9916C10.2414 21.9916 8.44395 22.4491 8.44395 23.6256V24.715M15.5248 18.1788H17.154M15.5248 19.8128H18.5157M20.427 19.8128H23.4179M12.2567 12.1873H19.3376M15.5248 22.5363H17.154M15.5199 24.1703H18.2434M20.427 24.1703H23.4179" stroke="black" stroke-miterlimit="10" stroke-linecap="round"/>
</svg>

<svg width="32" height="32" viewBox="0 0 32 32" fill="none" xmlns="http://www.w3.org/2000/svg">
  <symbol id="item" viewBox="0 0 32 32" stroke-width="1" fill="none">
    <path d="M6.265 14.91v11.44a1.21 1.21 0 0 0 1.215 1.089h17.43a.991.991 0 0 0 .964-1.09V14.911m-19.609 0L4.288 5.22a.588.588 0 0 1 .594-.66h22.626a.507.507 0 0 1 .468.66l-2.102 9.69m-19.609 0h19.609m-14.707 7.08a1.634 1.634 0 0 0 1.634-1.633v-.545a1.634 1.634 0 1 0-3.268 0v.545a1.634 1.634 0 0 0 1.634 1.634Zm0 0c.926 0 2.724.458 2.724 1.635v1.089m-2.724-2.723c-.926 0-2.723.457-2.723 1.634v1.089m7.08-6.536h1.63m-1.63 1.634h2.992m1.911 0h2.99m-11.16-7.626h7.08m-3.812 10.35h1.629M15.52 24.17h2.723m2.184 0h2.99" stroke="currentColor" stroke-miterlimit="10" stroke-linecap="round"/>
  </symbol>
</svg>
